public/icons/pause.svg

<svg width="18" height="18" viewBox="0 0 18 18" fill="none" xmlns="http://www.w3.org/2000/svg">
<path d="M12.0001 3.2223V14.7776C12.0001 15.1907 12.0001 15.3972 12.0386 15.5689C12.1964 16.2741 12.8161 16.8257 13.6095 16.966C13.8027 17.0001 14.035 17.0001 14.4997 17.0001C14.9643 17.0001 15.1976 17.0001 15.3907 16.966C16.1841 16.8257 16.8042 16.2741 16.962 15.5689C17.0001 15.3987 17.0001 15.1943 17.0001 14.7885V3.21143C17.0001 2.80564 17.0001 2.60086 16.962 2.43065C16.8042 1.72544 16.1837 1.17456 15.3903 1.03428C15.1971 1.00012 14.9648 1.00012 14.5001 1.00012C14.0355 1.00012 13.8027 1.00012 13.6095 1.03428C12.8161 1.17456 12.1964 1.72544 12.0386 2.43065C12.0001 2.60238 12.0001 2.80928 12.0001 3.2223Z" stroke="#0B0C0F" stroke-width="2" stroke-linecap="round" stroke-linejoin="round"/>
<path d="M1.00012 3.2223V14.7776C1.00012 15.1907 1.00012 15.3972 1.03855 15.5689C1.19636 16.2741 1.81612 16.8257 2.6095 16.966C2.80269 17.0001 3.03503 17.0001 3.49968 17.0001C3.96433 17.0001 4.19755 17.0001 4.39075 16.966C5.18413 16.8257 5.80422 16.2741 5.96204 15.5689C6.00013 15.3987 6.00012 15.1943 6.00012 14.7885V3.21143C6.00012 2.80564 6.00013 2.60086 5.96204 2.43065C5.80422 1.72544 5.18368 1.17456 4.3903 1.03428C4.1971 1.00012 3.96478 1.00012 3.50012 1.00012C3.03547 1.00012 2.80269 1.00012 2.6095 1.03428C1.81612 1.17456 1.19636 1.72544 1.03855 2.43065C1.00012 2.60238 1.00012 2.80928 1.00012 3.2223Z" stroke="#0B0C0F" stroke-width="2" stroke-linecap="round" stroke-linejoin="round"/>
</svg>

<svg xmlns="http://www.w3.org/2000/svg" width="18" height="18" fill="none"><path stroke="#0b0c0f" stroke-linecap="round" stroke-linejoin="round" stroke-width="2" d="M12 3.222v11.556c0 .413 0 .62.039.79.157.706.777 1.258 1.57 1.398.194.034.426.034.89.034.465 0 .699 0 .892-.034.793-.14 1.413-.692 1.571-1.397.038-.17.038-.375.038-.78V3.21c0-.405 0-.61-.038-.78-.158-.706-.778-1.256-1.572-1.397C15.197 1 14.965 1 14.5 1c-.464 0-.697 0-.89.034-.794.14-1.414.691-1.571 1.397-.039.171-.039.378-.039.791M1 3.222v11.556c0 .413 0 .62.039.79.157.706.777 1.258 1.57 1.398.194.034.426.034.89.034.465 0 .699 0 .892-.034.793-.14 1.413-.692 1.571-1.397.038-.17.038-.375.038-.78V3.21c0-.405 0-.61-.038-.78-.158-.706-.778-1.256-1.572-1.397C4.197 1 3.965 1 3.5 1s-.697 0-.89.034c-.794.14-1.414.691-1.571 1.397C1 2.602 1 2.809 1 3.222"/></svg>
